X:1
T:The Boys from Wexford
M:C
L:1/8
Q:80
C:arr. Pipe Major Bill Cleary
S:March
K:HP
A2|
d3e{gde}dc{gBd}B{e}A|
a4{GdG}a2g2f2|
{a}f2d2{g}fe{Gdc}dc|  !
{g}B4{G}B2{g}A2|
d3e{gde}dc{gBd}B{e}A|
a4{GdG}a2|  !
g2|
{a}f2d2{g}fedc|
{Gdc}d4{gdc}d2|]
{g}A2{gBd}B3A{g}G2{d}B2|  !
{G}A3g{a}f3a|
{f}g2f2{gef}e2d2|
{g}B4{G}B2{g}A2|  !
d3e{gde}dc{gBd}B{e}A|
a4{GdG}a2g2|
{a}f2d2{g}fedc|  !
{Gdc}d4{gdc}d2|]

